X: 43132
T: Wink And She'll Follow You
R: slip jig
M: 9/8
K: Amixolydian
A2 e e2 d efg|A2 e efe d2 B|A2 e e2 d efg|fed edB d2 B:|
f3 f2 a efg|f3 f2 a g2 e|f3 f2 a efg|fed edB d2 B:|
AAA edB efg|AAA edB d2 B|AAA edB efg|fed edB d2 B:|
fdf afd efg|fdf afd g2 e|fdf afd efg|fed edB d2 B:|

